icons/desktop/12/svg/airplane-12.svg

<svg width="12" height="12" viewBox="0 0 12 12" fill="none" xmlns="http://www.w3.org/2000/svg">
<g clip-path="url(#clip0_8069_32477)">
<path fill-rule="evenodd" clip-rule="evenodd" d="M8.35609 0.660018C9.05961 -0.0445039 10.2367 -0.258813 11.1188 0.377791L11.3092 0.532088C12.2041 1.34318 12.2308 2.73323 11.3854 3.57994L10.3307 4.63365L11.2291 7.98814C11.3907 8.59265 11.218 9.23696 10.777 9.67955L9.99964 10.4579C9.50817 10.9491 8.69414 10.7984 8.3932 10.1913C8.22502 9.85251 8.05703 9.47478 7.90003 9.05943L7.74671 8.6317C7.61774 8.24991 7.51633 7.88267 7.43323 7.53599L6.11585 8.85435L6.25648 10.0028C6.29383 10.3107 6.18571 10.6139 5.97327 10.829L5.97132 10.8319L5.04359 11.7606C4.67834 12.1258 4.01118 12.0841 3.74476 11.5604C3.52984 11.139 3.31127 10.6321 3.13148 10.0458C3.02884 9.71251 2.95398 9.39528 2.89612 9.10045C2.60161 9.04225 2.28482 8.96759 1.95277 8.8651C1.36692 8.68509 0.861339 8.46672 0.44007 8.25181L0.439093 8.25084C-0.081706 7.98353 -0.122123 7.32109 0.237921 6.95689L0.239875 6.95396L1.16761 6.02525L1.25355 5.9481C1.43277 5.80586 1.65485 5.7306 1.88245 5.73228L1.99671 5.73912L3.14124 5.87877L4.45862 4.56041C4.11257 4.47715 3.74613 4.37441 3.36487 4.24498C2.92579 4.09598 2.52327 3.93242 2.15882 3.76549L1.80726 3.59752C1.19898 3.29576 1.05127 2.48319 1.53968 1.99205L2.318 1.21275L2.40296 1.13365C2.83953 0.751328 3.44188 0.607151 4.01038 0.760604L7.35804 1.65806L8.35609 0.660018ZM10.3873 1.39146C10.0756 1.1664 9.57731 1.20673 9.24085 1.54381L7.98694 2.79771C7.8291 2.95559 7.59908 3.01753 7.38343 2.95982L3.68519 1.96763C3.51351 1.92129 3.32858 1.96979 3.20179 2.09654L2.67347 2.62584C3.00318 2.7771 3.36844 2.92607 3.76722 3.06138C4.53731 3.32279 5.23866 3.46726 5.82191 3.54869C6.05646 3.5816 6.25243 3.74501 6.32776 3.96959C6.40287 4.19408 6.34458 4.44165 6.17737 4.60924L3.81116 6.97838C3.67528 7.11443 3.48446 7.18031 3.29359 7.15709L1.96546 6.99498L1.56507 7.39537C1.6887 7.44723 1.81765 7.49901 1.95277 7.54771L2.32093 7.67076L2.64417 7.76256C2.85544 7.81823 3.0577 7.86232 3.24866 7.89732L3.52601 7.94322L3.62171 7.96568C3.65316 7.97558 3.68392 7.98801 3.71351 8.00279L3.71546 8.00377L3.78089 8.04185C3.92791 8.13914 4.02822 8.29482 4.05433 8.47154C4.09414 8.74113 4.15099 9.03773 4.23401 9.35435L4.32679 9.6776C4.41018 9.9496 4.50323 10.2027 4.60023 10.4344L5.00062 10.034L4.83851 8.70494C4.81523 8.51426 4.88147 8.32328 5.01722 8.18736L7.38245 5.81822C7.54994 5.65052 7.7983 5.59179 8.02308 5.66685C8.24797 5.74214 8.41118 5.93881 8.44398 6.17369C8.52546 6.75725 8.67066 7.46084 8.93128 8.23228L9.06898 8.61803C9.16379 8.86882 9.26315 9.10428 9.3639 9.32408L9.89222 8.79576C10.0027 8.68434 10.0537 8.52967 10.0338 8.37681L10.0211 8.31139L9.02991 4.60924C8.97237 4.39378 9.03438 4.16349 9.19202 4.00572L10.5006 2.69615L10.5651 2.62486C10.8416 2.27822 10.8097 1.76583 10.4655 1.45494L10.3873 1.39146Z" fill="black"/>
</g>
<defs>
<clipPath id="clip0_8069_32477">
<rect width="12" height="12" fill="white"/>
</clipPath>
</defs>
</svg>

<!-- This Source Code Form is subject to the terms of the Mozilla Public
   - License, v. 2.0. If a copy of the MPL was not distributed with this
   - file, You can obtain one at http://mozilla.org/MPL/2.0/. -->
<svg xmlns="http://www.w3.org/2000/svg" width="12" height="12" fill="context-fill" fill-opacity="context-fill-opacity" viewBox="0 0 12 12">
    <g clip-path="url(#clip0_8069_32477)">
        <path fill-rule="evenodd" d="M8.356.66c.704-.705 1.88-.919 2.763-.282l.19.154c.895.811.922 2.201.076 3.048l-1.054 1.054.898 3.354a1.75 1.75 0 0 1-.452 1.692l-.777.778a1.002 1.002 0 0 1-1.607-.267A12 12 0 0 1 7.9 9.06l-.153-.427c-.13-.382-.23-.75-.314-1.096L6.116 8.854l.14 1.149c.038.308-.07.61-.283.826l-.002.003-.927.929c-.366.365-1.033.323-1.3-.2a9.4 9.4 0 0 1-.848-2.46A9.3 9.3 0 0 1 .44 8.25c-.522-.267-.562-.93-.202-1.294l.002-.003.928-.929.086-.077a1 1 0 0 1 .628-.216l.115.007 1.144.14L4.46 4.56a12.5 12.5 0 0 1-2.3-.795l-.352-.167a1.002 1.002 0 0 1-.267-1.606l.778-.78.085-.078A1.75 1.75 0 0 1 4.01.76l3.348.897zm2.031.731c-.311-.225-.81-.184-1.146.153L7.987 2.798a.63.63 0 0 1-.604.162l-3.698-.992a.5.5 0 0 0-.483.129l-.529.529a11.214 11.214 0 0 0 3.148.923.626.626 0 0 1 .356 1.06L3.811 6.98a.63.63 0 0 1-.517.178l-1.329-.162-.4.4q.186.079.388.153l.368.123.323.092q.317.083.605.134l.277.046.096.023q.047.015.092.037h.001l.066.039a.63.63 0 0 1 .273.43c.04.27.097.566.18.882l.093.324q.126.409.273.756l.4-.4-.161-1.33a.63.63 0 0 1 .178-.517l2.365-2.369a.626.626 0 0 1 1.062.356c.081.583.227 1.287.487 2.058l.138.386q.143.376.295.706l.528-.528a.5.5 0 0 0 .142-.42l-.013-.065L9.03 4.61a.63.63 0 0 1 .162-.603l1.309-1.31.064-.071a.856.856 0 0 0-.1-1.17z" clip-rule="evenodd" />
    </g>
</svg>
